images/left-men.svg

<svg width="176" height="161" viewBox="0 0 176 161" fill="none" xmlns="http://www.w3.org/2000/svg">
<path d="M99.6204 86.4298C93.4956 76.6106 80.2932 58.9946 57.4857 50.6532C47.7832 47.1144 32.3837 41.4757 20.6397 49.681C9.4595 57.4974 9.20671 72.5274 9.20671 74.0441C9.18727 86.7214 16.9453 98.6599 29.2338 105.057C31.3726 102.665 33.492 100.254 35.6309 97.8627C30.0699 87.1686 29.7588 77.8939 32.8699 76.0273C35.8642 74.219 43.4084 78.4772 50.0776 87.0131C66.5854 86.7992 83.1126 86.6047 99.6204 86.4298Z" fill="url(#paint0_linear_39_3410)"/>
<path opacity="0.3" d="M21.3202 85.8659C19.2008 81.1605 15.1954 81.0633 13.1538 75.8718C10.7817 69.8248 12.8816 61.4834 17.237 59.539C20.4841 58.0808 22.2924 61.9112 27.6589 60.939C34.5615 59.6946 36.253 54.5614 41.7362 54.1726C45.2944 53.9198 46.3833 55.9614 55.1135 61.639C65.3993 68.3471 72.4574 72.8192 77.3572 70.5053C78.5627 69.9415 80.3321 68.6193 81.6349 65.0805C90.2679 72.6053 96.101 80.7911 99.6204 86.4103C83.0931 86.6048 66.5854 86.7992 50.0582 86.9937C43.3889 78.4773 35.8447 74.1996 32.8504 76.0079C29.7588 77.8745 30.0505 87.1492 35.6114 97.8433C33.4726 100.235 31.3532 102.646 29.2144 105.038C25.9673 103.346 23.0702 101.265 20.523 98.9127C22.8563 93.2157 22.7396 89.0158 21.3202 85.8659Z" fill="url(#paint1_linear_39_3410)"/>
<path d="M9.20679 148.3C9.20679 148.3 7.57353 154.522 5.53193 158.158C3.49033 161.794 1.00153 161.347 0.923759 158.158C0.845984 154.969 6.7569 146.336 6.7569 146.336L9.20679 148.3Z" fill="url(#paint2_linear_39_3410)"/>
<path d="M115.953 94.4211C94.7595 76.2995 71.4464 77.8939 71.4464 77.8939C55.0164 79.0217 43.6418 86.9547 38.2169 90.8435C12.8622 109.023 6.46519 137.606 4.83191 146.492C5.06524 146.919 5.76521 148.008 7.16517 148.669C8.79845 149.467 10.2956 149.175 10.7429 149.058C13.7955 143.264 24.8201 124.112 48.6971 113.904C68.7631 105.329 86.7486 107.837 93.6512 109.16C97.676 110.696 103.781 112.212 110.684 110.734C113.173 110.209 121.047 108.498 122 104.026C122.545 101.518 120.795 98.5432 115.953 94.4211Z" fill="url(#paint3_linear_39_3410)"/>
<path d="M171.154 45.2284C169.132 41.2229 160.227 24.7346 140.355 17.6182C123.381 11.5517 108.817 16.0432 102.731 17.9098C95.9843 19.9903 83.4236 23.8596 75.7628 35.6426C75.1795 36.537 65.4381 51.8392 71.524 58.4307C75.5489 62.8055 85.6791 62.4167 95.1872 56.0586C94.6038 58.2946 93.4566 61.5223 90.9873 64.6333C87.6624 68.8137 84.9791 68.9692 84.5125 71.3997C83.8903 74.7052 88.3429 77.0578 96.1593 84.5437C102.906 91.0185 101.934 91.524 108.039 97.2016C116.167 104.785 120.075 108.732 123.07 108.848C134.872 109.276 145.002 68.7942 146.733 61.7167C154.88 56.2335 163.027 50.731 171.154 45.2284Z" fill="url(#paint4_linear_39_3410)"/>
<path d="M91.454 44.4312C90.2485 49.9532 87.7986 53.5698 86.2236 55.4947C84.0848 58.1196 81.7904 60.939 78.3489 61.0168C75.5879 61.0751 72.4185 59.3446 71.6602 57.0697C70.2992 53.0448 76.1518 46.57 86.2431 40.7174C87.9736 41.9424 89.7235 43.1868 91.454 44.4312Z" fill="url(#paint5_linear_39_3410)"/>
<path opacity="0.3" d="M76.5211 54.6003C78.5044 53.5115 77.9016 51.0421 80.0404 47.8339C84.8041 40.7369 97.4232 38.6953 100.029 42.1952C101.681 44.3923 99.387 48.8255 97.3454 52.7532C96.626 54.1337 95.8677 55.3586 95.0899 56.4669C95.1288 56.3308 95.1677 56.1947 95.2066 56.0586C85.6986 62.4167 75.5684 62.7862 71.5435 58.4307C70.2213 56.9919 69.638 55.1448 69.5602 53.1032C72.3212 54.7948 74.8101 55.5531 76.5211 54.6003Z" fill="url(#paint6_linear_39_3410)"/>
<path d="M112.667 33.4261L85.2903 32.7455C84.2598 32.7261 83.5015 33.6983 83.7737 34.6899L87.4875 48.1061C87.6625 48.7283 88.1874 49.1755 88.8291 49.2144L113.873 51.431C114.825 51.5088 115.623 50.7116 115.525 49.7588L114.145 34.8066C114.087 34.0483 113.445 33.4455 112.667 33.4261Z" fill="white"/>
<path d="M87.0014 46.3561C87.0014 46.3561 85.1737 45.9089 84.5126 44.1784C84.1626 43.2451 84.0071 41.7868 83.9487 40.6201C83.8904 39.5896 84.6293 38.6758 85.6598 38.5008L89.3152 37.8786C90.1318 37.7425 90.8318 38.5202 90.5596 39.3174C90.3652 39.8813 89.9958 40.5035 89.2958 41.0868C87.4486 42.6423 86.5736 43.6339 86.5736 43.6339L87.0014 46.3561Z" fill="url(#paint7_linear_39_3410)"/>
<path opacity="0.3" d="M122.72 86.4298C122.622 80.48 112.064 78.5162 109.77 68.1137C108.778 63.6028 109.303 57.3224 112.589 55.4364C116.789 53.0448 121.903 59.8696 127.795 57.6919C132.986 55.7669 131.936 49.3699 136.253 47.5616C141.25 45.4423 147.647 52.3059 153.46 57.2058C151.224 58.7224 148.988 60.2195 146.772 61.7362C145.041 68.8137 134.93 109.296 123.109 108.868C120.289 108.771 116.614 105.212 109.323 98.3683C120.056 93.5073 122.759 89.4824 122.72 86.4298Z" fill="url(#paint8_linear_39_3410)"/>
<path d="M164.815 38.2676C169.676 37.8981 181.07 60.7446 172.01 77.6413C170.785 79.9162 168.121 84.9132 162.56 87.4215C149.455 93.3324 130.128 80.9272 122 66.0139C118.286 59.2085 117.334 52.656 117.081 48.5533C118.131 47.2312 119.181 45.9284 120.231 44.6062C123.283 47.8534 129.253 53.181 138.236 55.7087C142.922 57.0114 148.813 58.6641 153.966 56.0198C162.813 51.4699 161.218 38.5398 164.815 38.2676Z" fill="url(#paint9_linear_39_3410)"/>
<path d="M120.756 8.75177C120.756 8.75177 125.053 15.3627 126.608 15.8682C128.164 16.3738 136.953 17.8515 136.972 18.2987C136.991 18.7459 132.111 19.8153 126.2 20.2236C120.289 20.6319 115.409 18.182 114.476 17.5209C113.523 16.8599 116.75 15.4988 118.228 15.6543C119.706 15.8099 118.403 11.2017 118.403 11.2017L120.756 8.75177Z" fill="url(#paint10_linear_39_3410)"/>
<path d="M91.3958 45.9866C93.2819 44.9561 94.8762 46.181 97.0345 45.0533C98.9011 44.0811 98.5511 42.7006 100.223 40.9312C103.451 37.4897 107.631 39.5313 110.548 36.6147C111.17 35.9925 111.87 35.0203 112.259 33.4259L112.648 33.4453C113.426 33.4648 114.067 34.0676 114.126 34.8453L115.506 49.7976C115.603 50.7503 114.806 51.5475 113.853 51.4698L89.0431 49.2726C89.6847 47.3282 90.5986 46.4338 91.3958 45.9866Z" fill="url(#paint11_linear_39_3410)"/>
<path d="M119.55 45.4812C119.298 44.6451 118.811 43.459 117.898 42.2729C115.856 39.648 112.337 37.9759 111.442 38.7925C111.034 39.1619 111.014 40.2313 112.609 43.2646C113.464 43.4784 114.592 43.8868 115.525 44.8201C116.867 46.1617 116.964 47.6978 117.703 47.7561C118.111 47.795 118.714 47.4061 119.55 45.4812Z" fill="url(#paint12_linear_39_3410)"/>
<path d="M112.551 10.6379C110.587 9.72403 109.265 6.51581 110.237 4.10478C110.956 2.31595 112.687 1.57707 113.931 1.05209C114.514 0.799322 118.617 -0.892283 121.261 1.22709C122.097 1.88818 122.759 3.0937 122.953 4.22144C123.05 4.80475 123.07 5.60193 122.972 7.19633C122.875 8.61572 122.914 8.55741 122.875 8.96573C122.778 9.97681 122.506 11.7267 121.534 14.1767C121.125 13.7294 120.581 13.2045 119.9 12.6795C119.648 12.4851 118.598 11.6879 117.431 11.2212C115.039 10.249 114.087 11.3573 112.551 10.6379Z" fill="url(#paint13_linear_39_3410)"/>
<path d="M123.05 11.4546C123.05 11.4546 122.875 15.3628 119.181 17.0738C115.875 18.6099 111.501 11.7268 112.706 9.08242C113.114 8.20745 114.359 7.2547 115.623 6.96304C116.381 6.78805 116.75 6.94361 117.975 6.63251C119.103 6.34085 119.317 6.08808 119.764 6.16585C120.309 6.28252 121.009 6.9047 121.534 9.33518C121.806 8.38243 122.409 7.76024 123.05 7.72136C123.147 7.72136 123.459 7.7408 123.692 7.89635C124.586 8.47967 124.411 9.91849 123.05 11.4546Z" fill="url(#paint14_linear_39_3410)"/>
<path d="M121.125 7.17682C121.125 7.17682 121.456 10.3851 121.125 11.4156C120.795 12.4461 119.434 13.8655 117.334 14.0794C115.214 14.2932 113.834 14.0794 113.834 14.0794C113.834 14.0794 115.409 17.7543 116.07 17.9098C116.731 18.0459 120.756 17.8515 121.495 17.1709C122.234 16.4904 123.128 13.5349 122.914 12.2128C122.7 10.91 121.495 7.93513 121.495 7.93513L121.125 7.17682Z" fill="url(#paint15_linear_39_3410)"/>
<defs>
<linearGradient id="paint0_linear_39_3410" x1="89.5744" y1="58.5632" x2="29.4212" y2="63.0373" gradientUnits="userSpaceOnUse">
<stop stop-color="#4499D9"/>
<stop offset="1" stop-color="#6E6CC1"/>
</linearGradient>
<linearGradient id="paint1_linear_39_3410" x1="38.5538" y1="33.5885" x2="51.7914" y2="69.9213" gradientUnits="userSpaceOnUse">
<stop stop-color="#AA80F9"/>
<stop offset="0.9964" stop-color="#6165D7"/>
</linearGradient>
<linearGradient id="paint2_linear_39_3410" x1="9.20828" y1="153.524" x2="0.927843" y2="153.524" gradientUnits="userSpaceOnUse">
<stop stop-color="#311944"/>
<stop offset="1" stop-color="#6B3976"/>
</linearGradient>
<linearGradient id="paint3_linear_39_3410" x1="109.067" y1="93.5554" x2="31.1242" y2="99.8368" gradientUnits="userSpaceOnUse">
<stop stop-color="#4499D9"/>
<stop offset="1" stop-color="#6E6CC1"/>
</linearGradient>
<linearGradient id="paint4_linear_39_3410" x1="111.965" y1="18.7106" x2="135.624" y2="106.022" gradientUnits="userSpaceOnUse">
<stop stop-color="#893976"/>
<stop offset="1" stop-color="#311944"/>
</linearGradient>
<linearGradient id="paint5_linear_39_3410" x1="75.3422" y1="27.8277" x2="100.161" y2="119.421" gradientUnits="userSpaceOnUse">
<stop stop-color="#893976"/>
<stop offset="1" stop-color="#311944"/>
</linearGradient>
<linearGradient id="paint6_linear_39_3410" x1="79.3074" y1="27.5598" x2="102.966" y2="114.871" gradientUnits="userSpaceOnUse">
<stop stop-color="#893976"/>
<stop offset="1" stop-color="#311944"/>
</linearGradient>
<linearGradient id="paint7_linear_39_3410" x1="87.2914" y1="38.7344" x2="87.4791" y2="70.0918" gradientUnits="userSpaceOnUse">
<stop stop-color="#FFC444"/>
<stop offset="0.9964" stop-color="#F36F56"/>
</linearGradient>
<linearGradient id="paint8_linear_39_3410" x1="115.127" y1="17.8539" x2="138.785" y2="105.165" gradientUnits="userSpaceOnUse">
<stop stop-color="#893976"/>
<stop offset="1" stop-color="#311944"/>
</linearGradient>
<linearGradient id="paint9_linear_39_3410" x1="133.055" y1="39.1862" x2="160.375" y2="72.4208" gradientUnits="userSpaceOnUse">
<stop stop-color="#893976"/>
<stop offset="1" stop-color="#311944"/>
</linearGradient>
<linearGradient id="paint10_linear_39_3410" x1="136.968" y1="14.5074" x2="114.286" y2="14.5074" gradientUnits="userSpaceOnUse">
<stop stop-color="#FFC444"/>
<stop offset="0.9964" stop-color="#F36F56"/>
</linearGradient>
<linearGradient id="paint11_linear_39_3410" x1="115.538" y1="42.4282" x2="89.0569" y2="42.4282" gradientUnits="userSpaceOnUse">
<stop offset="0.494" stop-color="#EBEFF2"/>
<stop offset="1" stop-color="white"/>
</linearGradient>
<linearGradient id="paint12_linear_39_3410" x1="115.355" y1="38.5601" x2="115.543" y2="69.9172" gradientUnits="userSpaceOnUse">
<stop stop-color="#FFC444"/>
<stop offset="0.9964" stop-color="#F36F56"/>
</linearGradient>
<linearGradient id="paint13_linear_39_3410" x1="132.577" y1="19.1587" x2="113.142" y2="2.8394" gradientUnits="userSpaceOnUse">
<stop stop-color="#311944"/>
<stop offset="1" stop-color="#6B3976"/>
</linearGradient>
<linearGradient id="paint14_linear_39_3410" x1="117.419" y1="8.0582" x2="132.163" y2="38.7054" gradientUnits="userSpaceOnUse">
<stop stop-color="#FFC444"/>
<stop offset="0.9964" stop-color="#F36F56"/>
</linearGradient>
<linearGradient id="paint15_linear_39_3410" x1="113.461" y1="26.5414" x2="120.634" y2="8.3219" gradientUnits="userSpaceOnUse">
<stop stop-color="#311944"/>
<stop offset="1" stop-color="#6B3976"/>
</linearGradient>
</defs>
</svg>

<svg width="176" height="161" fill="none" xmlns="http://www.w3.org/2000/svg"><path d="M99.62 86.43c-6.124-9.82-19.327-27.435-42.134-35.777-9.703-3.539-25.102-9.177-36.846-.972C9.46 57.497 9.207 72.527 9.207 74.044c-.02 12.677 7.738 24.616 20.027 31.013 2.139-2.392 4.258-4.803 6.397-7.194-5.561-10.694-5.872-19.97-2.761-21.836 2.994-1.808 10.538 2.45 17.208 10.986 16.507-.214 33.035-.408 49.542-.583z" fill="url(#paint0_linear_39_3410)"/><path opacity=".3" d="M21.32 85.866c-2.12-4.706-6.125-4.803-8.166-9.994-2.372-6.047-.272-14.389 4.083-16.333 3.247-1.458 5.055 2.372 10.422 1.4 6.903-1.244 8.594-6.378 14.077-6.766 3.558-.253 4.647 1.788 13.378 7.466 10.285 6.708 17.343 11.18 22.243 8.866 1.206-.563 2.975-1.886 4.278-5.424C90.268 72.605 96.1 80.79 99.62 86.41l-49.562.583C43.388 78.477 35.845 74.2 32.85 76.008c-3.091 1.867-2.8 11.141 2.761 21.835-2.138 2.392-4.258 4.803-6.397 7.195a40.137 40.137 0 01-8.691-6.125c2.333-5.697 2.217-9.897.797-13.047z" fill="url(#paint1_linear_39_3410)"/><path d="M9.207 148.3s-1.633 6.222-3.675 9.858-4.53 3.189-4.608 0c-.078-3.189 5.833-11.822 5.833-11.822l2.45 1.964z" fill="url(#paint2_linear_39_3410)"/><path d="M115.953 94.421C94.759 76.3 71.446 77.894 71.446 77.894c-16.43 1.128-27.804 9.06-33.23 12.95-25.354 18.179-31.75 46.762-33.384 55.648a5.256 5.256 0 002.333 2.177 5.301 5.301 0 003.578.389c3.053-5.794 14.077-24.946 37.954-35.154 20.066-8.575 38.052-6.067 44.954-4.744 4.025 1.536 10.13 3.052 17.033 1.574 2.489-.525 10.363-2.236 11.316-6.708.545-2.508-1.205-5.483-6.047-9.605z" fill="url(#paint3_linear_39_3410)"/><path d="M171.154 45.228c-2.022-4.005-10.927-20.493-30.799-27.61-16.974-6.066-31.538-1.575-37.624.292-6.747 2.08-19.307 5.95-26.968 17.733-.584.894-10.325 16.196-4.239 22.788 4.025 4.375 14.155 3.986 23.663-2.372-.583 2.236-1.73 5.463-4.2 8.574-3.325 4.18-6.008 4.336-6.474 6.767-.623 3.305 3.83 5.658 11.646 13.144 6.747 6.475 5.775 6.98 11.88 12.658 8.128 7.583 12.036 11.53 15.031 11.646 11.802.428 21.932-40.054 23.663-47.131 8.147-5.483 16.294-10.986 24.421-16.489z" fill="url(#paint4_linear_39_3410)"/><path d="M91.454 44.431c-1.205 5.522-3.655 9.139-5.23 11.064-2.14 2.625-4.434 5.444-7.875 5.522-2.761.058-5.93-1.672-6.689-3.947-1.36-4.025 4.492-10.5 14.583-16.353a863.93 863.93 0 015.211 3.714z" fill="url(#paint5_linear_39_3410)"/><path opacity=".3" d="M76.521 54.6c1.983-1.089 1.38-3.558 3.52-6.766 4.763-7.097 17.382-9.139 19.988-5.639 1.652 2.197-.642 6.63-2.684 10.558a32.906 32.906 0 01-2.255 3.714l.117-.408c-9.508 6.358-19.639 6.727-23.663 2.372-1.323-1.44-1.906-3.286-1.984-5.328 2.761 1.692 5.25 2.45 6.961 1.497z" fill="url(#paint6_linear_39_3410)"/><path d="M112.667 33.426l-27.377-.68a1.538 1.538 0 00-1.516 1.944l3.713 13.416c.175.622.7 1.07 1.342 1.108l25.044 2.217c.952.078 1.75-.72 1.652-1.672l-1.38-14.952c-.058-.759-.7-1.361-1.478-1.38z" fill="#fff"/><path d="M87.001 46.356s-1.827-.447-2.488-2.178c-.35-.933-.506-2.391-.564-3.558a2.046 2.046 0 011.71-2.12l3.656-.621c.817-.136 1.517.641 1.245 1.438-.195.564-.564 1.187-1.264 1.77-1.847 1.555-2.722 2.547-2.722 2.547L87 46.356z" fill="url(#paint7_linear_39_3410)"/><path opacity=".3" d="M122.72 86.43c-.098-5.95-10.656-7.914-12.95-18.316-.992-4.511-.467-10.792 2.819-12.678 4.2-2.391 9.314 4.434 15.206 2.256 5.191-1.925 4.141-8.322 8.458-10.13 4.997-2.12 11.394 4.744 17.207 9.644-2.236 1.516-4.472 3.013-6.688 4.53-1.731 7.078-11.842 47.56-23.663 47.132-2.82-.097-6.495-3.656-13.786-10.5 10.733-4.86 13.436-8.886 13.397-11.938z" fill="url(#paint8_linear_39_3410)"/><path d="M164.815 38.268c4.861-.37 16.255 22.477 7.195 39.373-1.225 2.275-3.889 7.272-9.45 9.78-13.105 5.911-32.432-6.494-40.56-21.407-3.714-6.805-4.666-13.358-4.919-17.46 1.05-1.323 2.1-2.626 3.15-3.948 3.052 3.247 9.022 8.575 18.005 11.103 4.686 1.302 10.577 2.955 15.73.31 8.847-4.55 7.252-17.48 10.849-17.751z" fill="url(#paint9_linear_39_3410)"/><path d="M120.756 8.752s4.297 6.61 5.852 7.116c1.556.506 10.345 1.984 10.364 2.43.019.448-4.861 1.517-10.772 1.926-5.911.408-10.791-2.042-11.724-2.703-.953-.661 2.274-2.022 3.752-1.867 1.478.156.175-4.452.175-4.452l2.353-2.45z" fill="url(#paint10_linear_39_3410)"/><path d="M91.396 45.987c1.886-1.03 3.48.194 5.638-.934 1.867-.972 1.517-2.352 3.189-4.122 3.228-3.441 7.408-1.4 10.325-4.316.622-.623 1.322-1.595 1.711-3.19l.389.02c.778.02 1.419.623 1.478 1.4l1.38 14.953c.097.952-.7 1.75-1.653 1.672l-24.81-2.197c.642-1.945 1.556-2.84 2.353-3.286z" fill="url(#paint11_linear_39_3410)"/><path d="M119.55 45.481a10.073 10.073 0 00-1.652-3.208c-2.042-2.625-5.561-4.297-6.456-3.48-.408.369-.428 1.438 1.167 4.472.855.213 1.983.622 2.916 1.555 1.342 1.342 1.439 2.878 2.178 2.936.408.039 1.011-.35 1.847-2.275z" fill="url(#paint12_linear_39_3410)"/><path d="M112.551 10.638c-1.964-.914-3.286-4.122-2.314-6.533.719-1.79 2.45-2.528 3.694-3.053.583-.253 4.686-1.944 7.33.175.836.661 1.498 1.867 1.692 2.994.097.584.117 1.38.019 2.975-.097 1.42-.058 1.361-.097 1.77-.097 1.01-.369 2.76-1.341 5.21a12.875 12.875 0 00-1.634-1.496c-.252-.195-1.302-.992-2.469-1.459-2.392-.972-3.344.136-4.88-.583z" fill="url(#paint13_linear_39_3410)"/><path d="M123.05 11.455s-.175 3.908-3.869 5.619c-3.306 1.536-7.68-5.347-6.475-7.992.408-.875 1.653-1.827 2.917-2.119.758-.175 1.127-.02 2.352-.33 1.128-.292 1.342-.545 1.789-.467.545.117 1.245.739 1.77 3.17.272-.954.875-1.576 1.516-1.615.097 0 .409.02.642.175.894.584.719 2.022-.642 3.559z" fill="url(#paint14_linear_39_3410)"/><path d="M121.125 7.177s.331 3.208 0 4.239c-.33 1.03-1.691 2.45-3.791 2.663-2.12.214-3.5 0-3.5 0s1.575 3.675 2.236 3.83c.661.137 4.686-.057 5.425-.738.739-.68 1.633-3.636 1.419-4.958-.214-1.303-1.419-4.278-1.419-4.278l-.37-.758z" fill="url(#paint15_linear_39_3410)"/><defs><linearGradient id="paint0_linear_39_3410" x1="89.574" y1="58.563" x2="29.421" y2="63.037" gradientUnits="userSpaceOnUse"><stop stop-color="#4499D9"/><stop offset="1" stop-color="#6E6CC1"/></linearGradient><linearGradient id="paint1_linear_39_3410" x1="38.554" y1="33.589" x2="51.791" y2="69.921" gradientUnits="userSpaceOnUse"><stop stop-color="#AA80F9"/><stop offset=".996" stop-color="#6165D7"/></linearGradient><linearGradient id="paint2_linear_39_3410" x1="9.208" y1="153.524" x2=".928" y2="153.524" gradientUnits="userSpaceOnUse"><stop stop-color="#311944"/><stop offset="1" stop-color="#6B3976"/></linearGradient><linearGradient id="paint3_linear_39_3410" x1="109.067" y1="93.555" x2="31.124" y2="99.837" gradientUnits="userSpaceOnUse"><stop stop-color="#4499D9"/><stop offset="1" stop-color="#6E6CC1"/></linearGradient><linearGradient id="paint4_linear_39_3410" x1="111.965" y1="18.711" x2="135.624" y2="106.022" gradientUnits="userSpaceOnUse"><stop stop-color="#893976"/><stop offset="1" stop-color="#311944"/></linearGradient><linearGradient id="paint5_linear_39_3410" x1="75.342" y1="27.828" x2="100.161" y2="119.421" gradientUnits="userSpaceOnUse"><stop stop-color="#893976"/><stop offset="1" stop-color="#311944"/></linearGradient><linearGradient id="paint6_linear_39_3410" x1="79.307" y1="27.56" x2="102.966" y2="114.871" gradientUnits="userSpaceOnUse"><stop stop-color="#893976"/><stop offset="1" stop-color="#311944"/></linearGradient><linearGradient id="paint7_linear_39_3410" x1="87.291" y1="38.734" x2="87.479" y2="70.092" gradientUnits="userSpaceOnUse"><stop stop-color="#FFC444"/><stop offset=".996" stop-color="#F36F56"/></linearGradient><linearGradient id="paint8_linear_39_3410" x1="115.127" y1="17.854" x2="138.785" y2="105.165" gradientUnits="userSpaceOnUse"><stop stop-color="#893976"/><stop offset="1" stop-color="#311944"/></linearGradient><linearGradient id="paint9_linear_39_3410" x1="133.055" y1="39.186" x2="160.375" y2="72.421" gradientUnits="userSpaceOnUse"><stop stop-color="#893976"/><stop offset="1" stop-color="#311944"/></linearGradient><linearGradient id="paint10_linear_39_3410" x1="136.968" y1="14.507" x2="114.286" y2="14.507" gradientUnits="userSpaceOnUse"><stop stop-color="#FFC444"/><stop offset=".996" stop-color="#F36F56"/></linearGradient><linearGradient id="paint11_linear_39_3410" x1="115.538" y1="42.428" x2="89.057" y2="42.428" gradientUnits="userSpaceOnUse"><stop offset=".494" stop-color="#EBEFF2"/><stop offset="1" stop-color="#fff"/></linearGradient><linearGradient id="paint12_linear_39_3410" x1="115.355" y1="38.56" x2="115.543" y2="69.917" gradientUnits="userSpaceOnUse"><stop stop-color="#FFC444"/><stop offset=".996" stop-color="#F36F56"/></linearGradient><linearGradient id="paint13_linear_39_3410" x1="132.577" y1="19.159" x2="113.142" y2="2.839" gradientUnits="userSpaceOnUse"><stop stop-color="#311944"/><stop offset="1" stop-color="#6B3976"/></linearGradient><linearGradient id="paint14_linear_39_3410" x1="117.419" y1="8.058" x2="132.163" y2="38.705" gradientUnits="userSpaceOnUse"><stop stop-color="#FFC444"/><stop offset=".996" stop-color="#F36F56"/></linearGradient><linearGradient id="paint15_linear_39_3410" x1="113.461" y1="26.541" x2="120.634" y2="8.322" gradientUnits="userSpaceOnUse"><stop stop-color="#311944"/><stop offset="1" stop-color="#6B3976"/></linearGradient></defs></svg>
